neru-dark-classic/22x22/panel/transmission-panel.svg

<svg xmlns="http://www.w3.org/2000/svg" width="22" height="22"><defs><style id="current-color-scheme" type="text/css"></style></defs><path d="M5 3c-.554 0-1 .446-1 1v14c0 .554.446 1 1 1h12c.554 0 1-.446 1-1V4c0-.554-.446-1-1-1H5zm2 2h8c.554 0 1 .446 1 1v10c0 .554-.446 1-1 1H7c-.554 0-1-.446-1-1V6c0-.554.446-1 1-1zm4 1L8 9h2v4H8l3 3 3-3h-2V9h2l-3-3z" fill="currentColor" color="#d3dae3"/></svg>

<svg xmlns="http://www.w3.org/2000/svg" width="22" height="22" version="1.1">
 <defs>
  <style id="current-color-scheme" type="text/css">
   .ColorScheme-Text { color:#d3dae3; } .ColorScheme-Highlight { color:#5294e2; }
  </style>
 </defs>
 <path style="fill:currentColor" class="ColorScheme-Text" d="M 5 3 C 4.446 3 4 3.446 4 4 L 4 18 C 4 18.554 4.446 19 5 19 L 17 19 C 17.554 19 18 18.554 18 18 L 18 4 C 18 3.446 17.554 3 17 3 L 5 3 z M 7 5 L 15 5 C 15.554 5 16 5.446 16 6 L 16 16 C 16 16.554 15.554 17 15 17 L 7 17 C 6.446 17 6 16.554 6 16 L 6 6 C 6 5.446 6.446 5 7 5 z M 11 6 L 8 9 L 10 9 L 10 13 L 8 13 L 11 16 L 14 13 L 12 13 L 12 9 L 14 9 L 11 6 z"/>
</svg>
